src/apps/scalable/cutecom.svg

<?xml version="1.0" encoding="UTF-8" standalone="no"?>
<svg
   width="128"
   height="128"
   viewBox="0 0 33.866666 33.866668"
   version="1.1"
   id="svg1443"
   inkscape:version="1.1.2 (0a00cf5339, 2022-02-04)"
   sodipodi:docname="cutecom.svg"
   xmlns:inkscape="http://www.inkscape.org/namespaces/inkscape"
   xmlns:sodipodi="http://sodipodi.sourceforge.net/DTD/sodipodi-0.dtd"
   xmlns:xlink="http://www.w3.org/1999/xlink"
   xmlns="http://www.w3.org/2000/svg"
   xmlns:svg="http://www.w3.org/2000/svg"
   xmlns:rdf="http://www.w3.org/1999/02/22-rdf-syntax-ns#"
   xmlns:cc="http://creativecommons.org/ns#"
   xmlns:dc="http://purl.org/dc/elements/1.1/">
  <defs
     id="defs1437">
    <linearGradient
       inkscape:collect="always"
       id="linearGradient876">
      <stop
         style="stop-color:#000000;stop-opacity:1;"
         offset="0"
         id="stop872" />
      <stop
         style="stop-color:#000000;stop-opacity:0;"
         offset="1"
         id="stop874" />
    </linearGradient>
    <linearGradient
       inkscape:collect="always"
       id="linearGradient2867">
      <stop
         style="stop-color:#ff7700;stop-opacity:1"
         offset="0"
         id="stop2863" />
      <stop
         style="stop-color:#ffb000;stop-opacity:1"
         offset="1"
         id="stop2865" />
    </linearGradient>
    <linearGradient
       inkscape:collect="always"
       id="linearGradient2051">
      <stop
         style="stop-color:#a5a5a5;stop-opacity:1"
         offset="0"
         id="stop2047" />
      <stop
         style="stop-color:#cbcbcb;stop-opacity:0.99607843"
         offset="0.42667142"
         id="stop2140" />
      <stop
         style="stop-color:#9e9e9e;stop-opacity:0.99296111"
         offset="1"
         id="stop2049" />
    </linearGradient>
    <linearGradient
       gradientTransform="matrix(0.97573206,0,0,0.97573206,-111.76517,-37.182508)"
       gradientUnits="userSpaceOnUse"
       y2="64.966194"
       x2="132.21078"
       y1="45.121208"
       x1="143.32224"
       id="linearGradient1632"
       inkscape:collect="always"
       xlink:href="#linearGradient1630" />
    <linearGradient
       id="linearGradient1630"
       inkscape:collect="always">
      <stop
         id="stop1626"
         offset="0"
         style="stop-color:#d0d4d5;stop-opacity:1" />
      <stop
         id="stop1628"
         offset="1"
         style="stop-color:#f6f8f8;stop-opacity:1" />
    </linearGradient>
    <radialGradient
       inkscape:collect="always"
       xlink:href="#linearGradient2050"
       id="radialGradient2270"
       cx="-571.09357"
       cy="434.78534"
       fx="-571.09357"
       fy="434.78534"
       r="229.44476"
       gradientUnits="userSpaceOnUse"
       gradientTransform="matrix(1.0612895,0,0,1.0612895,400.72106,-182.52731)" />
    <linearGradient
       inkscape:collect="always"
       xlink:href="#linearGradient2051"
       id="linearGradient2620"
       gradientUnits="userSpaceOnUse"
       x1="18.695072"
       y1="18.969645"
       x2="22.633188"
       y2="27.913197"
       gradientTransform="scale(3.7795276)" />
    <linearGradient
       inkscape:collect="always"
       xlink:href="#linearGradient2867"
       id="linearGradient2869"
       x1="17.956141"
       y1="17.089436"
       x2="17.956141"
       y2="2.8376129"
       gradientUnits="userSpaceOnUse" />
    <linearGradient
       inkscape:collect="always"
       xlink:href="#linearGradient876"
       id="linearGradient878"
       x1="23.70643"
       y1="71.492302"
       x2="23.70643"
       y2="10.502451"
       gradientUnits="userSpaceOnUse" />
  </defs>
  <sodipodi:namedview
     id="base"
     pagecolor="#ffffff"
     bordercolor="#666666"
     borderopacity="1.0"
     inkscape:pageopacity="0.0"
     inkscape:pageshadow="2"
     inkscape:zoom="3.9140626"
     inkscape:cx="61.572853"
     inkscape:cy="53.013971"
     inkscape:document-units="mm"
     inkscape:current-layer="layer1"
     inkscape:document-rotation="0"
     showgrid="false"
     units="px"
     inkscape:window-width="1920"
     inkscape:window-height="1030"
     inkscape:window-x="0"
     inkscape:window-y="24"
     inkscape:window-maximized="1"
     inkscape:pagecheckerboard="0" />
  <metadata
     id="metadata1440">
    <rdf:RDF>
      <cc:Work
         rdf:about="">
        <dc:format>image/svg+xml</dc:format>
        <dc:type
           rdf:resource="http://purl.org/dc/dcmitype/StillImage" />
      </cc:Work>
    </rdf:RDF>
  </metadata>
  <g
     inkscape:label="Capa 1"
     inkscape:groupmode="layer"
     id="layer1">
    <g
       style="opacity:0.295"
       transform="matrix(0.97573206,0,0,0.97573206,-65.737228,-37.182508)"
       id="g1702">
      <rect
         ry="6.6098609"
         rx="6.6098609"
         y="40.709618"
         x="69.839508"
         height="29.810888"
         width="29.810888"
         id="rect1634"
         style="fill:none;fill-opacity:1;stroke:#000000;stroke-width:0.1;stroke-linecap:round;stroke-linejoin:round;stroke-miterlimit:4;stroke-dasharray:none;stroke-opacity:0.02" />
      <rect
         style="fill:none;fill-opacity:1;stroke:#000000;stroke-width:0.2;stroke-linecap:round;stroke-linejoin:round;stroke-miterlimit:4;stroke-dasharray:none;stroke-opacity:0.02"
         id="rect1638"
         width="29.810888"
         height="29.810888"
         x="69.839508"
         y="40.709618"
         rx="6.6098609"
         ry="6.6098609" />
      <rect
         ry="6.6098609"
         rx="6.6098609"
         y="40.709618"
         x="69.839508"
         height="29.810888"
         width="29.810888"
         id="rect1640"
         style="fill:none;fill-opacity:1;stroke:#000000;stroke-width:0.3;stroke-linecap:round;stroke-linejoin:round;stroke-miterlimit:4;stroke-dasharray:none;stroke-opacity:0.02" />
      <rect
         style="fill:none;fill-opacity:1;stroke:#000000;stroke-width:0.4;stroke-linecap:round;stroke-linejoin:round;stroke-miterlimit:4;stroke-dasharray:none;stroke-opacity:0.02"
         id="rect1642"
         width="29.810888"
         height="29.810888"
         x="69.839508"
         y="40.709618"
         rx="6.6098609"
         ry="6.6098609" />
      <rect
         ry="6.6098609"
         rx="6.6098609"
         y="40.709618"
         x="69.839508"
         height="29.810888"
         width="29.810888"
         id="rect1644"
         style="fill:none;fill-opacity:1;stroke:#000000;stroke-width:0.5;stroke-linecap:round;stroke-linejoin:round;stroke-miterlimit:4;stroke-dasharray:none;stroke-opacity:0.02" />
      <rect
         style="fill:none;fill-opacity:1;stroke:#000000;stroke-width:0.6;stroke-linecap:round;stroke-linejoin:round;stroke-miterlimit:4;stroke-dasharray:none;stroke-opacity:0.02"
         id="rect1646"
         width="29.810888"
         height="29.810888"
         x="69.839508"
         y="40.709618"
         rx="6.6098609"
         ry="6.6098609" />
      <rect
         ry="6.6098609"
         rx="6.6098609"
         y="40.709618"
         x="69.839508"
         height="29.810888"
         width="29.810888"
         id="rect1648"
         style="fill:none;fill-opacity:1;stroke:#000000;stroke-width:0.7;stroke-linecap:round;stroke-linejoin:round;stroke-miterlimit:4;stroke-dasharray:none;stroke-opacity:0.02" />
      <rect
         style="fill:none;fill-opacity:1;stroke:#000000;stroke-width:0.8;stroke-linecap:round;stroke-linejoin:round;stroke-miterlimit:4;stroke-dasharray:none;stroke-opacity:0.02"
         id="rect1650"
         width="29.810888"
         height="29.810888"
         x="69.839508"
         y="40.709618"
         rx="6.6098609"
         ry="6.6098609" />
      <rect
         ry="6.6098609"
         rx="6.6098609"
         y="40.709618"
         x="69.839508"
         height="29.810888"
         width="29.810888"
         id="rect1652"
         style="fill:none;fill-opacity:1;stroke:#000000;stroke-width:1;stroke-linecap:round;stroke-linejoin:round;stroke-miterlimit:4;stroke-dasharray:none;stroke-opacity:0.02" />
      <rect
         style="fill:none;fill-opacity:1;stroke:#000000;stroke-width:1.2;stroke-linecap:round;stroke-linejoin:round;stroke-miterlimit:4;stroke-dasharray:none;stroke-opacity:0.02"
         id="rect1654"
         width="29.810888"
         height="29.810888"
         x="69.839508"
         y="40.709618"
         rx="6.6098609"
         ry="6.6098609" />
      <rect
         ry="6.6098609"
         rx="6.6098609"
         y="40.709618"
         x="69.839508"
         height="29.810888"
         width="29.810888"
         id="rect1656"
         style="fill:none;fill-opacity:1;stroke:#000000;stroke-width:1.4;stroke-linecap:round;stroke-linejoin:round;stroke-miterlimit:4;stroke-dasharray:none;stroke-opacity:0.02" />
      <rect
         style="fill:none;fill-opacity:1;stroke:#000000;stroke-width:1.6;stroke-linecap:round;stroke-linejoin:round;stroke-miterlimit:4;stroke-dasharray:none;stroke-opacity:0.02"
         id="rect1658"
         width="29.810888"
         height="29.810888"
         x="69.839508"
         y="40.709618"
         rx="6.6098609"
         ry="6.6098609" />
      <rect
         ry="6.6098609"
         rx="6.6098609"
         y="40.709618"
         x="69.839508"
         height="29.810888"
         width="29.810888"
         id="rect1660"
         style="fill:none;fill-opacity:1;stroke:#000000;stroke-width:1.8;stroke-linecap:round;stroke-linejoin:round;stroke-miterlimit:4;stroke-dasharray:none;stroke-opacity:0.02" />
      <rect
         style="fill:none;fill-opacity:1;stroke:#000000;stroke-width:2;stroke-linecap:round;stroke-linejoin:round;stroke-miterlimit:4;stroke-dasharray:none;stroke-opacity:0.02"
         id="rect1662"
         width="29.810888"
         height="29.810888"
         x="69.839508"
         y="40.709618"
         rx="6.6098609"
         ry="6.6098609" />
      <rect
         ry="6.6098609"
         rx="6.6098609"
         y="40.709618"
         x="69.839508"
         height="29.810888"
         width="29.810888"
         id="rect1664"
         style="fill:none;fill-opacity:1;stroke:#000000;stroke-width:2.2;stroke-linecap:round;stroke-linejoin:round;stroke-miterlimit:4;stroke-dasharray:none;stroke-opacity:0.02" />
      <rect
         style="fill:none;fill-opacity:1;stroke:#000000;stroke-width:2.6;stroke-linecap:round;stroke-linejoin:round;stroke-miterlimit:4;stroke-dasharray:none;stroke-opacity:0.02"
         id="rect1666"
         width="29.810888"
         height="29.810888"
         x="69.839508"
         y="40.709618"
         rx="6.6098609"
         ry="6.6098609" />
      <rect
         ry="6.6098609"
         rx="6.6098609"
         y="40.709618"
         x="69.839508"
         height="29.810888"
         width="29.810888"
         id="rect1668"
         style="fill:none;fill-opacity:1;stroke:#000000;stroke-width:3;stroke-linecap:round;stroke-linejoin:round;stroke-miterlimit:4;stroke-dasharray:none;stroke-opacity:0.02" />
      <rect
         style="fill:none;fill-opacity:1;stroke:#000000;stroke-width:3.4;stroke-linecap:round;stroke-linejoin:round;stroke-miterlimit:4;stroke-dasharray:none;stroke-opacity:0.02"
         id="rect1670"
         width="29.810888"
         height="29.810888"
         x="69.839508"
         y="40.709618"
         rx="6.6098609"
         ry="6.6098609" />
      <rect
         ry="6.6098609"
         rx="6.6098609"
         y="40.709618"
         x="69.839508"
         height="29.810888"
         width="29.810888"
         id="rect1672"
         style="fill:none;fill-opacity:1;stroke:#000000;stroke-width:3.8;stroke-linecap:round;stroke-linejoin:round;stroke-miterlimit:4;stroke-dasharray:none;stroke-opacity:0.02" />
      <rect
         style="fill:none;fill-opacity:1;stroke:#000000;stroke-width:4.2;stroke-linecap:round;stroke-linejoin:round;stroke-miterlimit:4;stroke-dasharray:none;stroke-opacity:0.02"
         id="rect1674"
         width="29.810888"
         height="29.810888"
         x="69.839508"
         y="40.709618"
         rx="6.6098609"
         ry="6.6098609" />
      <rect
         ry="6.6098609"
         rx="6.6098609"
         y="40.709618"
         x="69.839508"
         height="29.810888"
         width="29.810888"
         id="rect1676"
         style="fill:none;fill-opacity:1;stroke:#000000;stroke-width:4.6;stroke-linecap:round;stroke-linejoin:round;stroke-miterlimit:4;stroke-dasharray:none;stroke-opacity:0.02" />
      <rect
         style="fill:none;fill-opacity:1;stroke:#000000;stroke-width:5;stroke-linecap:round;stroke-linejoin:round;stroke-miterlimit:4;stroke-dasharray:none;stroke-opacity:0.02"
         id="rect1678"
         width="29.810888"
         height="29.810888"
         x="69.839508"
         y="40.709618"
         rx="6.6098609"
         ry="6.6098609" />
    </g>
    <rect
       ry="6.4494534"
       rx="6.4494534"
       y="2.5391712"
       x="2.4074187"
       height="29.087439"
       width="29.087439"
       id="rect849"
       style="fill:url(#linearGradient1632);fill-opacity:1;stroke-width:2.68768;stroke-linecap:round;stroke-linejoin:round" />
    <path
       id="rect1085"
       style="opacity:1;fill:url(#linearGradient2869);fill-opacity:1;stroke:none;stroke-width:6.61458;stroke-linecap:round;stroke-linejoin:round;stroke-opacity:0.811765"
       d="m 10.482541,3.709451 c -0.8950902,0 -1.6154056,0.7203154 -1.6154056,1.615405 v 5.520077 c 0,0.89509 0.7203154,1.615922 1.6154056,1.615922 0.89509,0 1.615922,-0.720832 1.615922,-1.615922 V 5.324856 c 0,-0.8950896 -0.720832,-1.615405 -1.615922,-1.615405 z m 6.468339,0 c -0.89509,0 -1.615406,0.7203154 -1.615406,1.615405 v 5.520077 c 0,0.89509 0.720316,1.615922 1.615406,1.615922 0.89509,0 1.615922,-0.720832 1.615922,-1.615922 V 5.324856 c 0,-0.8950896 -0.720832,-1.615405 -1.615922,-1.615405 z m 6.468339,0 c -0.89509,0 -1.615405,0.7203154 -1.615405,1.615405 v 5.520077 c 0,0.89509 0.720315,1.615922 1.615405,1.615922 0.895089,0 1.615922,-0.720832 1.615922,-1.615922 V 5.324856 c 0,-0.8950896 -0.720833,-1.615405 -1.615922,-1.615405 z" />
    <path
       id="rect1807"
       style="fill:url(#linearGradient878);stroke-width:2.68768;stroke-linecap:round;stroke-linejoin:round;fill-opacity:1"
       d="m 31.494857,17.08289 v 8.094266 c 0,3.572998 -2.876456,6.449454 -6.449453,6.449454 H 8.8568721 c -3.5729972,0 -6.4494534,-2.876456 -6.4494534,-6.449454 V 17.08289 Z"
       sodipodi:nodetypes="csssscc" />
    <circle
       style="opacity:1;fill:#ededed;fill-opacity:0.99607801;stroke:none;stroke-width:7.65649;stroke-linecap:round;stroke-linejoin:round;stroke-opacity:0.811765"
       id="path1965"
       cx="16.951138"
       cy="24.35475"
       r="5.3571577" />
    <path
       id="circle2618"
       style="opacity:1;fill:url(#linearGradient2620);fill-opacity:1;stroke:none;stroke-width:28.9379;stroke-linecap:round;stroke-linejoin:round;stroke-opacity:0.811765"
       d="M 64.066406 71.802734 A 20.247525 20.247525 0 0 0 52.716797 75.287109 A 20.247525 20.247525 0 0 1 60.425781 73.75 A 20.247525 20.247525 0 0 1 80.673828 93.998047 A 20.247525 20.247525 0 0 1 71.78125 110.75781 A 20.247525 20.247525 0 0 0 84.314453 92.048828 A 20.247525 20.247525 0 0 0 64.066406 71.802734 z "
       transform="scale(0.26458333)" />
    <path
       id="circle2767"
       style="opacity:1;fill:#ffffff;fill-opacity:0.996078;stroke:none;stroke-width:28.9379;stroke-linecap:round;stroke-linejoin:round;stroke-opacity:0.811765"
       d="M 53.068359 74.802734 A 20.247525 20.247525 0 0 0 42.447266 92.599609 A 20.247525 20.247525 0 0 0 62.695312 112.84766 A 20.247525 20.247525 0 0 0 73.630859 109.62695 A 20.247525 20.247525 0 0 1 63.992188 112.08203 A 20.247525 20.247525 0 0 1 43.746094 91.833984 A 20.247525 20.247525 0 0 1 53.068359 74.802734 z "
       transform="scale(0.26458333)" />
    <rect
       style="opacity:1;fill:#ffffff;fill-opacity:0.878833;stroke:none;stroke-width:6.61458;stroke-linecap:round;stroke-linejoin:round;stroke-opacity:0.811765"
       id="rect997"
       width="29.085318"
       height="0.47252047"
       x="2.4074187"
       y="17.08289"
       rx="0"
       ry="0" />
  </g>
</svg>

<?xml version="1.0" encoding="UTF-8"?>
<svg id="svg1443" width="128" height="128" version="1.1" viewBox="0 0 33.867 33.867" xmlns="http://www.w3.org/2000/svg" xmlns:cc="http://creativecommons.org/ns#" xmlns:dc="http://purl.org/dc/elements/1.1/" xmlns:rdf="http://www.w3.org/1999/02/22-rdf-syntax-ns#" xmlns:xlink="http://www.w3.org/1999/xlink">
 <defs id="defs1437">
  <linearGradient id="linearGradient1632" x1="143.32" x2="132.21" y1="45.121" y2="64.966" gradientTransform="matrix(.97573 0 0 .97573 -111.77 -37.183)" gradientUnits="userSpaceOnUse">
   <stop id="stop1626" stop-color="#d0d4d5" offset="0"/>
   <stop id="stop1628" stop-color="#f6f8f8" offset="1"/>
  </linearGradient>
  <linearGradient id="linearGradient2620" x1="18.695" x2="22.633" y1="18.97" y2="27.913" gradientTransform="scale(3.7795)" gradientUnits="userSpaceOnUse">
   <stop id="stop2047" stop-color="#a5a5a5" offset="0"/>
   <stop id="stop2140" stop-color="#cbcbcb" stop-opacity=".99608" offset=".42667"/>
   <stop id="stop2049" stop-color="#9e9e9e" stop-opacity=".99296" offset="1"/>
  </linearGradient>
  <linearGradient id="linearGradient2869" x1="17.956" x2="17.956" y1="17.089" y2="2.8376" gradientUnits="userSpaceOnUse">
   <stop id="stop2863" stop-color="#f70" offset="0"/>
   <stop id="stop2865" stop-color="#ffb000" offset="1"/>
  </linearGradient>
  <linearGradient id="linearGradient878" x1="23.706" x2="23.706" y1="71.492" y2="10.502" gradientUnits="userSpaceOnUse">
   <stop id="stop872" offset="0"/>
   <stop id="stop874" stop-opacity="0" offset="1"/>
  </linearGradient>
 </defs>
 <metadata id="metadata1440">
  <rdf:RDF>
   <cc:Work rdf:about="">
    <dc:format>image/svg+xml</dc:format>
    <dc:type rdf:resource="http://purl.org/dc/dcmitype/StillImage"/>
   </cc:Work>
  </rdf:RDF>
 </metadata>
 <g id="layer1">
  <g id="g1702" transform="matrix(.97573 0 0 .97573 -65.737 -37.183)" fill="none" opacity=".295" stroke="#000" stroke-linecap="round" stroke-linejoin="round" stroke-opacity=".02">
   <rect id="rect1634" x="69.84" y="40.71" width="29.811" height="29.811" rx="6.6099" ry="6.6099" stroke-width=".1"/>
   <rect id="rect1638" x="69.84" y="40.71" width="29.811" height="29.811" rx="6.6099" ry="6.6099" stroke-width=".2"/>
   <rect id="rect1640" x="69.84" y="40.71" width="29.811" height="29.811" rx="6.6099" ry="6.6099" stroke-width=".3"/>
   <rect id="rect1642" x="69.84" y="40.71" width="29.811" height="29.811" rx="6.6099" ry="6.6099" stroke-width=".4"/>
   <rect id="rect1644" x="69.84" y="40.71" width="29.811" height="29.811" rx="6.6099" ry="6.6099" stroke-width=".5"/>
   <rect id="rect1646" x="69.84" y="40.71" width="29.811" height="29.811" rx="6.6099" ry="6.6099" stroke-width=".6"/>
   <rect id="rect1648" x="69.84" y="40.71" width="29.811" height="29.811" rx="6.6099" ry="6.6099" stroke-width=".7"/>
   <rect id="rect1650" x="69.84" y="40.71" width="29.811" height="29.811" rx="6.6099" ry="6.6099" stroke-width=".8"/>
   <rect id="rect1652" x="69.84" y="40.71" width="29.811" height="29.811" rx="6.6099" ry="6.6099"/>
   <rect id="rect1654" x="69.84" y="40.71" width="29.811" height="29.811" rx="6.6099" ry="6.6099" stroke-width="1.2"/>
   <rect id="rect1656" x="69.84" y="40.71" width="29.811" height="29.811" rx="6.6099" ry="6.6099" stroke-width="1.4"/>
   <rect id="rect1658" x="69.84" y="40.71" width="29.811" height="29.811" rx="6.6099" ry="6.6099" stroke-width="1.6"/>
   <rect id="rect1660" x="69.84" y="40.71" width="29.811" height="29.811" rx="6.6099" ry="6.6099" stroke-width="1.8"/>
   <rect id="rect1662" x="69.84" y="40.71" width="29.811" height="29.811" rx="6.6099" ry="6.6099" stroke-width="2"/>
   <rect id="rect1664" x="69.84" y="40.71" width="29.811" height="29.811" rx="6.6099" ry="6.6099" stroke-width="2.2"/>
   <rect id="rect1666" x="69.84" y="40.71" width="29.811" height="29.811" rx="6.6099" ry="6.6099" stroke-width="2.6"/>
   <rect id="rect1668" x="69.84" y="40.71" width="29.811" height="29.811" rx="6.6099" ry="6.6099" stroke-width="3"/>
   <rect id="rect1670" x="69.84" y="40.71" width="29.811" height="29.811" rx="6.6099" ry="6.6099" stroke-width="3.4"/>
   <rect id="rect1672" x="69.84" y="40.71" width="29.811" height="29.811" rx="6.6099" ry="6.6099" stroke-width="3.8"/>
   <rect id="rect1674" x="69.84" y="40.71" width="29.811" height="29.811" rx="6.6099" ry="6.6099" stroke-width="4.2"/>
   <rect id="rect1676" x="69.84" y="40.71" width="29.811" height="29.811" rx="6.6099" ry="6.6099" stroke-width="4.6"/>
   <rect id="rect1678" x="69.84" y="40.71" width="29.811" height="29.811" rx="6.6099" ry="6.6099" stroke-width="5"/>
  </g>
  <rect id="rect849" x="2.4074" y="2.5392" width="29.087" height="29.087" rx="6.4495" ry="6.4495" fill="url(#linearGradient1632)" stroke-linecap="round" stroke-linejoin="round" stroke-width="2.6877"/>
  <path id="rect1085" d="m10.483 3.7095c-0.89509 0-1.6154 0.72032-1.6154 1.6154v5.5201c0 0.89509 0.72032 1.6159 1.6154 1.6159 0.89509 0 1.6159-0.72083 1.6159-1.6159v-5.5201c0-0.89509-0.72083-1.6154-1.6159-1.6154zm6.4683 0c-0.89509 0-1.6154 0.72032-1.6154 1.6154v5.5201c0 0.89509 0.72032 1.6159 1.6154 1.6159s1.6159-0.72083 1.6159-1.6159v-5.5201c0-0.89509-0.72083-1.6154-1.6159-1.6154zm6.4683 0c-0.89509 0-1.6154 0.72032-1.6154 1.6154v5.5201c0 0.89509 0.72032 1.6159 1.6154 1.6159 0.89509 0 1.6159-0.72083 1.6159-1.6159v-5.5201c0-0.89509-0.72083-1.6154-1.6159-1.6154z" fill="url(#linearGradient2869)"/>
  <path id="rect1807" d="m31.495 17.083v8.0943c0 3.573-2.8765 6.4495-6.4495 6.4495h-16.189c-3.573 0-6.4495-2.8765-6.4495-6.4495v-8.0943z" fill="url(#linearGradient878)" stroke-linecap="round" stroke-linejoin="round" stroke-width="2.6877"/>
  <circle id="path1965" cx="16.951" cy="24.355" r="5.3572" fill="#ededed" fill-opacity=".99608"/>
  <path id="circle2618" transform="scale(.26458)" d="m64.066 71.803a20.248 20.248 0 0 0-11.35 3.4844 20.248 20.248 0 0 1 7.709-1.5371 20.248 20.248 0 0 1 20.248 20.248 20.248 20.248 0 0 1-8.8926 16.76 20.248 20.248 0 0 0 12.533-18.709 20.248 20.248 0 0 0-20.248-20.246z" fill="url(#linearGradient2620)"/>
  <path id="circle2767" transform="scale(.26458)" d="m53.068 74.803a20.248 20.248 0 0 0-10.621 17.797 20.248 20.248 0 0 0 20.248 20.248 20.248 20.248 0 0 0 10.936-3.2207 20.248 20.248 0 0 1-9.6387 2.4551 20.248 20.248 0 0 1-20.246-20.248 20.248 20.248 0 0 1 9.3223-17.031z" fill="#fff" fill-opacity=".99608"/>
  <rect id="rect997" x="2.4074" y="17.083" width="29.085" height=".47252" rx="0" ry="0" fill="#fff" fill-opacity=".87883"/>
 </g>
</svg>
